X:1
T:The Nut Brown Lass
T:The Nut Brown Lass
T:The Catch Club or Merry Companions
T:Henry Purcell
C:Henry Purcell
%%score [ 1 2 3 4 ]
L:1/8
M:3/4
K:F
V:1 treble-8 nm="I"
V:2 treble-8 nm="II"
V:3 treble-8 nm="III"
V:4 treble-8 nm="IV"
V:1
|: F2 | A4 F2 | B3 c B A | G3 F G2 | c3 c E2 | F2 G4 | C4 c B | A3 B A2 | d4 d2 | d3 c d2 | %10
w: A|Health a|Health to _ the|Nut _ brown|Lass with the|Ha- zle|Eyes, She that|has _ good|Eyes has|al- so good|
 e3 e f2 | f3 g e2 | f4 :| %13
w: Thighs, let it|pass, let it|pass|
V:2
|: A2 | c3 B c2 | d3 _e c2 | _e2 d2 d2 | d2 c2 c2 | c4 =B2 | c4 c d | e2 A2 a2 | a4 a2 | a2 f2 b2 | %10
w: As|much to the|live- li- er|Gray they're as|good _ by|night as|day She that|has _ good|Eyes has|al- so good|
 b2 a2 a b | g2 g3 f | f4 :| %13
w: Thighs, _ Drink a-|way, drink a-|way|
V:3
|: c2 | F2 c2 f2 | f4 d2 | g4 g2 | g2 e2 g2 | g6- | g4 g2 | g2 ag fe | f4 f2 | f2 d2 f2 | g3 g f2 | %11
w: I'll|pledge, Sir, I'll|pledge what|ho some|Wine here, some|Wine|_ to|mine and _ to _|thine, to|thine and to|mine, the Col-|
 d2 _ed c3/2 B/ | A4 :| %13
w: ours are _ _ Di-|vine|
V:4
|: f2 | f4 a2 | a2 f2 a2 | b3 a g f | e f g2 fe | d3 e f2 | e4 e d | ^c3 =B c2 | d4 dc | B3 A G2 | %10
w: But|Oh the|black Eyes, the|black give me as|much a- gain, and _|let it be|Sack She that|has _ good|Eyes has _|al- so good|
 c3 c d2 | B2 c4 | F4 :| %13
w: Thighs and a|bet- ter|knack.|

